X:1
T:Magnificat tertii toni - Soriano
T:#
%%score [ 1 2 3 4 ]
L:1/8
Q:1/4=130
M:none
K:Bb
V:1 treble nm="S" snm="S"
V:2 treble nm="A" snm="A"
V:3 treble-8 nm="T" snm="T"
V:4 bass nm="B" snm="B"
V:1
 x12 ||"^Magnificat tertii toni""^Francesco Soriano\n(1549-1621)"[Q:1/4=200] z4 G6 G2 G4 | %2
w: |A- ni- ma|
 F8 G4 (B4- | B2 A2 G8) ^F4 | G16 || z28 | z22 || %7
w: me- a Do\-|* * * mi-|num.|||
[M:4/2][Q:1/4=200][Q:1/4=200][Q:1/4=200][Q:1/4=200] z16 | z4 d4 c4 f4 | d8 c8 | z16 | z16 | %12
w: |hu- mi- li-|ta- tem|||
 z4 B8 B4 | A8 A4 A4 | B4 c4 d4 f4 | e4 (d8 c4) | d8 z4 B4- | B4 B4 c4 d4 | d4 c4 (B4 A4- | %19
w: ec- ce|e- nim ex|hoc be- a- tam|me di\- *|cent o\-|* mnes ge- ne-|ra- ti- o\- *|
 A2 G2 G8 ^F4) | G16 ||[Q:1/4=130][Q:1/4=130][Q:1/4=130][Q:1/4=130] z30 | z22 || %23
w: |nes.|||
[M:4/2][Q:1/4=200][Q:1/4=200][Q:1/4=200][Q:1/4=200] z16 | z8 z4 f4 | e4 d8 c4 | B8 z4 f4 | %27
w: |A|pro- ge- ni-|e ti-|
 d4 B4 G4 (A4- | A4 G8 ^F4) | G16 ||[Q:1/4=130][Q:1/4=130][Q:1/4=130][Q:1/4=130] z28 | z22 || %32
w: men- ti- bus e\-||um.|||
[M:4/2][Q:1/4=200][Q:1/4=200][Q:1/4=200][Q:1/4=200] G16 | A6 A2 A4 B4 | B8 B4 (c4- | %35
w: De-|po- su- it po-|ten- tes de\-|
 c2 B2) (B8 A4) | B4 B4 d4 f4 | d12 B4 | (B8 c6) c2 | =B16 || %40
w: * * se\- *|de, et ex- al-|ta- vit|hu\- * mi-|les.|
[Q:1/4=130][Q:1/4=130][Q:1/4=130][Q:1/4=130] z26 | z22 || %42
w: ||
[M:4/2][Q:1/4=200][Q:1/4=200][Q:1/4=200][Q:1/4=200] z16 | B8 (c8 | d12) d4 | d12 d4 | d8 e8- | %47
w: |Su- sce\-|* pit|Is- ra-|el pu\-|
 e4 d4 d8 | c16 | d16- | d16 | z4 d8 d4 | d8 d8- | d4 d4 d4 d4 | d8 c8 | =B8 (c8 | d8 c8) | =B16 || %58
w: * e- rum|su-|um,||re- cor-|da- tus|* mi- se- ri-|cor- di-|ae su\-||ae.|
[Q:1/4=130][Q:1/4=130][Q:1/4=130][Q:1/4=130] z26 | z24 || %60
w: ||
[M:3/1][Q:1/4=400][Q:1/4=400][Q:1/4=400][Q:1/4=400] =B12 B4 B8 | c8 c8 B8 | A16 A8 || %63
w: Glo- ri- a|Pa- tri, et|Fi- li-|
[Q:1/4=200] B4 B4 c4 B4- | B2 A2 G8 ^F4 | G16 ||[Q:1/4=130][Q:1/4=130][Q:1/4=130][Q:1/4=130] z26 | %67
w: o, et Spi- ri\-|* tu- i san-|cto.||
 z22 |] %68
w: |
V:2
 x12 || z4 E6 E2 E4 | D4 D4 (E8 | D12) D4 | D16 || z28 | z22 ||[M:4/2] z16 | z4 F4 A4 A4 | B8 A8 | %10
w: |A- ni- ma|me- a Do\-|* mi-|num.||||hu- mi- li-|ta- tem|
 z16 | z16 | z4 F8 F4 | F8 F4 C4 | G4 A4 B8 | G4 F4 E8 | D4 F8 F4 | (G2 A2 B2 G2 A8) | B4 G8 F4 | %19
w: ||ec- ce|e- nim ex|hoc be- a-|tam me di-|cent o- mnes|ge\- * * * *|ne- ra- ti-|
 (E4 C4 D8) | D16 || z30 | z22 ||[M:4/2] G6 G2 F4 D4 | E4 F4 G4 A4 | B8 z4 F4 | F4 D8 C4 | %27
w: o\- * *|nes.|||Et mi- se- ri-|cor- di- a e-|ius in|pro- ge- ni-|
 B,4 D4 E6 E2 | D8 D8 | D16 || z28 | z22 ||[M:4/2] D16 | F6 F2 F4 F4 | G8 G4 G4 | %35
w: es ti- men- ti-|bus e-|um.|||De-|po- su- it po-|ten- tes de-|
 (G2 FE D2 E2 F8) | F8 z4 B4 | B6 B2 B4 F4- | F4 G8 ^F4 | G16 || z26 | z22 ||[M:4/2] z16 | %43
w: se\- * * * * *|de, et|ex- al- ta- vit|* hu- mi-|les.||||
 z4 G4 (E2 F2 G2 E2 | F8) G4 F4 | (D2 E2 F2 G2 F4) F4 | G4 F4 G8 | G12 F4 | F4 (F8 =E4) | %49
w: Su- sce\- * * *|* pit, su-|sce\- * * * * pit|Is- ra- el|pu- e-|rum su\- *|
 F4 F8 F4 | (D2 C2 D2 E2 F4) D4- | D4 G4 F4 G4 | (B2 A2 G2 F2 G4) G4 | F4 (G6 A2 B4- | B4 G8 ^F4 | %55
w: um, re- cor-|da\- * * * * tus|* mi- se- ri-|cor\- * * * * di-|ae su\- * *||
 G4) D4 z4 (G4- | G2 F2 D4 E8) | D16 || z26 | z24 ||[M:3/1] G12 G4 G8 | G8 G8 D8 | F16 F8 || %63
w: * ae, su\-||ae.|||Glo- ri- a|Pa- tri, et|Fi- li-|
 D4 F4 F4 F4- | F2 F2 D4 D8 | D16 || z26 | z22 |] %68
w: o, et Spi- ri\-|* tu- i san-|cto.|||
V:3
 F2 G2 B2 B2 B4 || B8 B4 B4 | B12 G4 | B4 (B4 A8) | G16 || F2 G2 B2 B8 c2 B2 B2 A2 G2 B4 | %6
w: Ma- gni\- * fi- cat|A- ni- ma|me- a|Do- mi\- *|num.|~Et ex\- * ultavit spi- ri- tus me\- * us|
 B8 B2 A2 G2 B2 G2 F4 ||[M:4/2][K:treble-8] z4 f4 d4 e4 | (d6 e2 f4) c4 | z8 z4 f4 | %10
w: in~Deo~salu- ta\- * ri * me- o.|Qui- a re-|spe\- * * xit|an-|
 (d2 c2 d2 e2 f2 d2 e4- | e4) d4 c8 | B4 d8 d4 | c8 c4 f4 | e4 c4 B8 | E4 F4 (G4 A4) | B4 d8 d4 | %17
w: cil\- * * * * * *|* lae su-|ae: ec- ce|e- nim ex|hoc be- a-|tam me di\- *|cent o- mnes|
 e4 d4 f8- | f4 e4 (d6 c2 | B4 A2 G2 A8) | G16 || F2 G2 B2 B8 c2 B2 B2 B2 A2 G2 B4 | %22
w: ge- ne- ra\-|* ti- o\- *||nes.|Qui- a * fecit~mihi ma- gna qui po- tens * est:|
 B8 B2 A2 G2 B2 G2 F4 ||[M:4/2][K:treble-8] G6 G2 A4 B4 | c4 d4 e4 c4 | B8 z4 c4 | d4 B8 A4 | %27
w: et~sanctum no\- * men * e- ius.|Et mi- se- ri-|cor- di- a e-|ius in|pro- ge- ni-|
 B4 B4 c8 | B4 B4 A8 | G16 || F2 G2 B2 B8 c2 B2 B2 A2 G2 B4 | B8 B2 A2 G2 B2 G2 F4 || %32
w: es ti- men-|ti- bus e-|um.|Fe- cit * potentiam~in bra- chi- o su\- * o,|dispersit~superbos~mente cor\- * dis * su- i.|
[M:4/2][K:treble-8] B16 | c6 c2 c4 d4 | d8 d4 e4 | (d6 cB c8) | d4 d4 f4 d4 | f4 g4 (f2 e2 d2 c2 | %38
w: De-|po- su- it po-|ten- tes de-|se\- * * *|de, et ex- al-|ta- vit hu\- * * *|
 d8 c6) c2 | d16 || G2 A2 c2 c8 d2 c2 =B2 A2 c4 | c8 c2 =B2 A2 c2 A2 G4 ||[M:4/2][K:treble-8] F16 | %43
w: * * mi-|les.|E- su\- * rientes~im- ple- vit bo\- * nis|et~divites~dimi- sit * i\- * na- nes.|Su-|
 (G16 | B12) B4 | B12 B4 | B12 c4- | c4 B4 B8 | (A8 G8) | B16- | B8 z4 B4- | B4 B4 B8 | B12 B4 | %53
w: sce\-|* pit|Is- ra-|el pu\-|* e- rum|su\- *|um,|* re\-|* cor- da-|tus mi-|
 B4 B4 B4 G4 | B8 A8 | G16- | G16 | G16 || F2 G2 B2 B8 c2 B2 A2 G2 B4 | B8 B2 A2 G2 B2 G2 F2 F4 || %60
w: se- ri- cor- di-|ae su-|ae.|||Si- cut * locutus~est~ad pa- tres no\- * stros,|Abraham~et~semini~e- ius * in * sae- cu- la.|
[M:3/1][K:treble-8] d12 d4 d8 | e8 e8 B8 | c16 c8 || B4 d4 c4 d4- | d2 c2 B4 A8 | G16 || %66
w: Glo- ri- a|Pa- tri, et|Fi- li-|o, et Spi- ri\-|* tu- i san-|cto.|
 F2 G2 B2 B8 c2 B2 A2 G2 B4 | B8 B2 A2 G2 B2 G2 F4 |] %68
w: Si- cut * erat~in~principio,~et nunc, et sem\- * per,|et~in~saecula~saecu- lo\- * rum. * A- men.|
V:4
 x12 || z4 E,6 E,2 E,4 | B,,4 B,,4 (E,6 F,2 | G,8 D,6) D,2 | G,,16 || z28 | z22 || %7
w: |A- ni- ma|me- a Do\- *|* * mi-|num.|||
[M:4/2] F,8 G,4 G,4 | B,8 F,8 | z8 z4 F,4 | (G,2 A,2 B,2 G,2 A,2 B,2 C4- | C4) B,8 A,4 | %12
w: Qui- a re-|spe- xit|an-|cil\- * * * * * *|* lae su-|
 B,4 B,,8 B,,4 | F,8 F,8 | z16 | z16 | z4 B,,8 B,,4 | E,4 G,4 (F,2 E,2 D,2 C,2 | B,,4) C,4 (D,8 | %19
w: ae: ec- ce|e- nim|||o- mnes|ge- ne- ra\- * * *|* ti- o\-|
 E,8 D,8) | G,,16 || z30 | z22 ||[M:4/2] z16 | z8 z4 F,4 | G,4 B,8 A,4 | B,8 z4 F,4 | G,8 E,4 C,4 | %28
w: |nes.||||A|pro- ge- ni-|e ti-|men- ti- bus|
 D,16 | G,,16 || z28 | z22 ||[M:4/2] G,16 | F,6 F,2 F,4 B,4 | G,8 G,4 E,4 | (G,8 F,8) | %36
w: e-|um.|||De-|po- su- it po-|ten- tes de-|se\- *|
 B,,4 B,4 B,6 B,2 | B,4 G,4 B,8- | B,4 B,4 (A,8 | G,16) || z26 | z22 || %42
w: de, et ex- al-|ta- vit hu\-|* mi- les.||||
[M:4/2] z4 F,4 (D,2 E,2 F,2 D,2 | E,6 D,2 C,8) | B,,4 B,4 (G,2 A,2 B,4) | B,,8 z4 B,4 | %46
w: Su- sce\- * * *||pit, su- sce\- * *|pit, su-|
 (G,2 A,2 B,4) E,4 C,4- | C,2 C,2 G,4 G,4 D,4 | F,8 C,8 | B,,16 | z4 B,8 B,4 | %51
w: sce\- * * pit Is\-|* ra- el pu- e-|rum su-|um,|re- cor-|
 (G,2 F,2 G,2 A,2 B,4) G,4 | z4 G,4 G,4 G,4 | (B,2 A,2 G,2 F,2 G,8- | G,4) G,4 C8 | %55
w: da\- * * * * tus|mi- se- ri-|cor\- * * * *|* di- ae|
 z4 (G,2 F,2 E,2 D,2 C,4- | C,4 =B,,4 C,8) | G,,16 || z26 | z24 ||[M:3/1] G,12 G,4 G,8 | %61
w: su\- * * * *||ae.|||Glo- ri- a|
 C,8 C,8 G,8 | F,16 F,8 || B,,4 B,4 A,4 B,4- | B,2 F,2 G,4 D,8 | G,,16 || z26 | z22 |] %68
w: Pa- tri, et|Fi- li-|o, et Spi- ri\-|* tu- i san-|cto.|||

